evolvere-2-blue-mono/apps/24/android-studio.svg

<?xml version="1.0" encoding="UTF-8" standalone="no"?>
<!-- Created with Inkscape (http://www.inkscape.org/) -->

<svg
   xmlns:dc="http://purl.org/dc/elements/1.1/"
   xmlns:cc="http://creativecommons.org/ns#"
   xmlns:rdf="http://www.w3.org/1999/02/22-rdf-syntax-ns#"
   xmlns:svg="http://www.w3.org/2000/svg"
   xmlns="http://www.w3.org/2000/svg"
   xmlns:sodipodi="http://sodipodi.sourceforge.net/DTD/sodipodi-0.dtd"
   xmlns:inkscape="http://www.inkscape.org/namespaces/inkscape"
   version="1.1"
   width="24"
   height="24"
   id="svg2"
   inkscape:version="0.92.2 5c3e80d, 2017-08-06"
   sodipodi:docname="android-studio.svg">
  <sodipodi:namedview
     pagecolor="#ffffff"
     bordercolor="#666666"
     borderopacity="1"
     objecttolerance="10"
     gridtolerance="10"
     guidetolerance="10"
     inkscape:pageopacity="0"
     inkscape:pageshadow="2"
     inkscape:window-width="1920"
     inkscape:window-height="1033"
     id="namedview6"
     showgrid="true"
     inkscape:zoom="20.85965"
     inkscape:cx="1.6062689"
     inkscape:cy="12.940561"
     inkscape:window-x="-10"
     inkscape:window-y="25"
     inkscape:window-maximized="1"
     inkscape:current-layer="svg2"
     inkscape:snap-global="true"
     inkscape:snap-bbox="true"
     inkscape:bbox-paths="true"
     inkscape:bbox-nodes="true"
     inkscape:snap-bbox-edge-midpoints="true"
     inkscape:snap-bbox-midpoints="true"
     inkscape:object-paths="true"
     inkscape:snap-intersection-paths="true"
     inkscape:snap-smooth-nodes="true"
     inkscape:snap-midpoints="true"
     inkscape:snap-object-midpoints="true"
     inkscape:snap-center="true">
    <inkscape:grid
       type="xygrid"
       id="grid2982"
       empspacing="5"
       visible="true"
       enabled="true"
       snapvisiblegridlinesonly="true" />
  </sodipodi:namedview>
  <defs
     id="defs4" />
  <metadata
     id="metadata7">
    <rdf:RDF>
      <cc:Work
         rdf:about="">
        <dc:format>image/svg+xml</dc:format>
        <dc:type
           rdf:resource="http://purl.org/dc/dcmitype/StillImage" />
        <dc:title />
      </cc:Work>
    </rdf:RDF>
  </metadata>
  <path
     style="color:#000000;font-style:normal;font-variant:normal;font-weight:normal;font-stretch:normal;font-size:medium;line-height:normal;font-family:sans-serif;font-variant-ligatures:normal;font-variant-position:normal;font-variant-caps:normal;font-variant-numeric:normal;font-variant-alternates:normal;font-feature-settings:normal;text-indent:0;text-align:start;text-decoration:none;text-decoration-line:none;text-decoration-style:solid;text-decoration-color:#000000;letter-spacing:normal;word-spacing:normal;text-transform:none;writing-mode:lr-tb;direction:ltr;text-orientation:mixed;dominant-baseline:auto;baseline-shift:baseline;text-anchor:start;white-space:normal;shape-padding:0;clip-rule:nonzero;display:inline;overflow:visible;visibility:visible;opacity:1;isolation:auto;mix-blend-mode:normal;color-interpolation:sRGB;color-interpolation-filters:linearRGB;solid-color:#000000;solid-opacity:1;vector-effect:none;fill:#f1f3f5;fill-opacity:0.90288714;fill-rule:nonzero;stroke:none;stroke-width:2;stroke-linecap:butt;stroke-linejoin:miter;stroke-miterlimit:4;stroke-dasharray:none;stroke-dashoffset:0;stroke-opacity:1;marker:none;color-rendering:auto;image-rendering:auto;shape-rendering:auto;text-rendering:auto;enable-background:accumulate;font-variant-east_asian:normal"
     d="M 10.443359 2.0546875 C 9.8910977 2.0547429 9.4434146 2.5024258 9.4433594 3.0546875 L 9.4433594 3.0644531 L 9.4433594 3.9804688 C 8.4577111 4.1572229 7.65625 4.9206457 7.65625 5.953125 L 7.65625 8.8730469 C 7.6560747 9.1769096 7.7940563 9.4643714 8.03125 9.6542969 C 8.084036 9.7185969 8.0870559 9.8610834 8.1367188 9.9101562 C 8.1500187 9.9235622 8.1636964 9.9365878 8.1777344 9.9492188 L 8.0917969 9.8730469 L 3.140625 18.447266 C 3.062877 18.58147 3.0174086 18.731918 3.0078125 18.886719 L 2.8867188 20.884766 C 2.8376498 21.706975 3.7478895 22.232686 4.4355469 21.779297 L 6.1035156 20.677734 C 6.2335056 20.592504 6.3418406 20.478154 6.4199219 20.34375 L 9.0058594 15.865234 C 9.9618536 16.222268 10.929862 16.578125 12.001953 16.578125 C 12.807708 16.578125 13.632572 16.37081 14.443359 16.169922 L 16.853516 20.34375 C 16.931046 20.477938 17.03869 20.592273 17.167969 20.677734 L 18.835938 21.779297 C 19.523595 22.232686 20.433834 21.706977 20.384766 20.884766 L 20.265625 18.888672 C 20.256925 18.733362 20.212115 18.582222 20.134766 18.447266 L 17.867188 14.521484 C 18.029988 14.387999 18.202865 14.282141 18.357422 14.130859 C 19.989603 12.542774 21 10.273827 21 7.8300781 C 20.999972 7.2816072 20.55821 6.8354888 20.009766 6.8300781 C 19.383131 6.8239381 18.734805 6.8299928 18.207031 6.8242188 C 17.650198 6.8177487 17.195331 7.2673485 17.195312 7.8242188 C 17.194616 9.9784208 16.782285 10.072571 15.892578 11.099609 L 15.183594 9.8710938 L 15.095703 9.9492188 C 15.109743 9.9365877 15.123419 9.9235622 15.136719 9.9101562 C 15.203039 9.8446142 15.201499 9.7153243 15.259766 9.6386719 C 15.259766 9.6386719 15.261719 9.6367188 15.261719 9.6367188 C 15.48757 9.4472701 15.618389 9.1678331 15.619141 8.8730469 L 15.619141 5.9628906 C 15.619182 5.9576806 15.619182 5.9524736 15.619141 5.9472656 C 15.603061 4.9336597 14.809138 4.1700555 13.830078 3.9863281 L 13.830078 3.0644531 L 13.830078 3.0546875 C 13.830023 2.5024256 13.38234 2.0547427 12.830078 2.0546875 L 11.630859 2.0546875 L 10.443359 2.0546875 z M 10.443359 3.0546875 L 11.630859 3.0546875 L 12.830078 3.0546875 L 12.830078 3.0644531 L 12.830078 4.8457031 L 13.492188 4.8457031 C 14.112691 4.8457031 14.609413 5.3495077 14.619141 5.9628906 L 14.619141 8.8730469 L 14.607422 8.8730469 C 14.607422 8.9593285 14.559636 9.0746574 14.433594 9.1992188 L 13.908203 9.6621094 L 15.642578 12.667969 C 15.997355 12.407513 16.331611 12.122616 16.621094 11.789062 C 17.484937 10.77964 18.19454 10.211023 18.195312 7.8242188 C 18.7391 7.8301674 19.386765 7.8240681 20 7.8300781 C 20 9.9956725 19.097418 12.015629 17.660156 13.414062 C 17.331338 13.736185 16.961464 14.019252 16.574219 14.279297 L 19.267578 18.947266 L 19.386719 20.945312 L 17.71875 19.84375 L 14.970703 15.082031 C 14.032573 15.401749 12.965319 15.578125 12.001953 15.578125 C 10.740419 15.578125 9.546264 15.284424 8.4960938 14.746094 L 5.5527344 19.84375 L 3.8847656 20.945312 L 4.0058594 18.947266 L 9.3652344 9.6640625 L 8.8398438 9.1992188 C 8.7137843 9.0746574 8.6563156 8.9689279 8.6660156 8.8730469 L 8.65625 8.8730469 L 8.65625 5.953125 C 8.65625 5.3492822 9.1587186 4.8457031 9.7695312 4.8457031 L 10.443359 4.8457031 L 10.443359 3.0644531 L 10.443359 3.0546875 z M 11.632812 6.0390625 L 11.632812 6.0527344 C 10.980217 6.0527344 10.443359 6.5844107 10.443359 7.2382812 C 10.443359 7.8920918 10.980217 8.4238281 11.632812 8.4238281 L 11.640625 8.4238281 C 12.293221 8.4161361 12.830078 7.8920917 12.830078 7.2382812 C 12.830078 6.5844107 12.293221 6.0604844 11.640625 6.0527344 L 11.632812 6.0390625 z M 10.734375 10.869141 L 9.4179688 13.152344 C 10.185586 13.544301 11.058863 13.779297 11.990234 13.779297 C 12.634948 13.779297 13.372988 13.663334 14.039062 13.466797 L 12.541016 10.869141 L 12.193359 11.173828 C 12.047929 11.327189 11.844229 11.404297 11.640625 11.404297 L 11.630859 11.394531 L 11.630859 11.404297 C 11.436953 11.404297 11.235206 11.327189 11.080078 11.173828 L 10.734375 10.869141 z "
     id="path856" />
  <path
     style="opacity:1;vector-effect:none;fill:#27303a;fill-opacity:0.75328082;stroke:none;stroke-width:1;stroke-linecap:butt;stroke-linejoin:miter;stroke-miterlimit:4;stroke-dasharray:none;stroke-dashoffset:0;stroke-opacity:1;marker:none"
     d="m 10.443823,3.055379 v 0.00995 1.7799747 H 9.7696205 c -0.6108126,0 -1.1137271,0.5039179 -1.1137271,1.1077607 v 2.9195541 h 0.00995 c -0.0097,0.095881 0.046966,0.2016021 0.1730254,0.3261634 L 9.3658989,9.6641605 4.006087,18.947872 3.8847703,20.944625 5.5533722,19.842831 8.496794,14.745542 c 1.0501703,0.53833 2.242724,0.833301 3.504258,0.833301 0.963366,0 2.031147,-0.177481 2.969277,-0.497199 l 2.748519,4.761182 1.668602,1.101794 -0.119328,-1.996753 -2.694822,-4.667709 c 0.387245,-0.260045 0.757066,-0.543005 1.085884,-0.865127 C 19.096446,12.016598 20,9.9960785 20,7.8304841 c -0.613235,-0.00601 -1.260054,-2.14e-5 -1.803841,-0.00597 -7.72e-4,2.3868039 -0.711285,2.9542539 -1.575128,3.9636759 -0.289483,0.333553 -0.623712,0.618593 -0.978489,0.879049 L 13.90831,9.6621675 14.433353,9.1987774 C 14.559395,9.0742161 14.608367,8.9588956 14.608367,8.872614 h 0.01 V 5.9630023 C 14.608639,5.3496194 14.113155,4.8452976 13.492651,4.8452976 h -0.66227 V 3.065323 3.0553745 h -1.199245 z m 1.189302,2.9831977 0.0079,0.013922 c 0.652596,0.00775 1.189302,0.5314537 1.189302,1.1853242 0,0.6538105 -0.536706,1.1776314 -1.189302,1.1853234 h -0.0079 c -0.652596,0 -1.189302,-0.5315129 -1.189302,-1.1853234 0,-0.6538705 0.536706,-1.1853242 1.189302,-1.1853242 z m -0.898938,4.8307923 0.346052,0.304286 c 0.155128,0.153361 0.356991,0.2307 0.550897,0.2307 v -0.0099 l 0.01,0.01 c 0.203604,0 0.407456,-0.07734 0.552886,-0.230701 l 0.346051,-0.304285 1.499554,2.59737 c -0.666074,0.196537 -1.403748,0.312242 -2.048462,0.312242 -0.931371,0 -1.805888,-0.234515 -2.5735053,-0.626472 z"
     id="path814"
     inkscape:connector-curvature="0" />
</svg>

<?xml version="1.0" encoding="UTF-8"?>
<!-- Created with Inkscape (http://www.inkscape.org/) -->
<svg width="24" height="24" version="1.1" xmlns="http://www.w3.org/2000/svg" xmlns:cc="http://creativecommons.org/ns#" xmlns:dc="http://purl.org/dc/elements/1.1/" xmlns:rdf="http://www.w3.org/1999/02/22-rdf-syntax-ns#">
	<defs>
		<style id="current-color-scheme" type="text/css">.ColorScheme-Text {
			color:#090d11;
			}
			.ColorScheme-Background{
			color:#ffffff;
			}</style>
	</defs>
	<metadata>
		<rdf:RDF>
			<cc:Work rdf:about="">
				<dc:format>image/svg+xml</dc:format>
				<dc:type rdf:resource="http://purl.org/dc/dcmitype/StillImage"/>
			</cc:Work>
		</rdf:RDF>
	</metadata>
	<path class="ColorScheme-Background" d="m10.443 2.0547c-0.55226 5.54e-5 -0.99994 0.44774-1 1v0.92579c-0.98565 0.17675-1.7871 0.94017-1.7871 1.9727v2.9199c-1.753e-4 0.30386 0.13781 0.59132 0.375 0.78125 0.052786 0.0643 0.055806 0.20679 0.10547 0.25586 0.0133 0.01341 0.026978 0.026433 0.041016 0.039063l-0.085938-0.076172-4.9512 8.5742c-0.077748 0.1342-0.12322 0.28465-0.13281 0.43945l-0.12109 1.998c-0.049069 0.82221 0.86117 1.3479 1.5488 0.89453l1.668-1.1016c0.12999-0.08523 0.23832-0.19958 0.31641-0.33398l2.5859-4.4785c0.95599 0.35703 1.924 0.71289 2.9961 0.71289 0.80576 0 1.6306-0.20732 2.4414-0.4082l2.4102 4.1738c0.07753 0.13419 0.18517 0.24852 0.31445 0.33398l1.668 1.1016c0.68766 0.45339 1.5979-0.07232 1.5488-0.89453l-0.11914-1.9961c-0.0087-0.15531-0.05351-0.30645-0.13086-0.44141l-2.2676-3.9258c0.1628-0.13348 0.33568-0.23934 0.49023-0.39062 1.6322-1.5881 2.6426-3.857 2.6426-6.3008-2.8e-5 -0.54847-0.44179-0.99459-0.99023-1-0.62664-0.00614-1.275-8.54e-5 -1.8027-0.00586-0.55683-0.00647-1.0117 0.44313-1.0117 1-6.96e-4 2.1542-0.41303 2.2484-1.3027 3.2754l-0.70898-1.2285-0.08789 0.078125c0.01404-0.01263 0.02772-0.025662 0.04102-0.039063 0.06632-0.06554 0.06478-0.19483 0.12305-0.27148l2e-3 -0.00195c0.2258-0.18945 0.35662-0.46889 0.35737-0.76367v-2.9102c4.1e-5 -0.00521 4.1e-5 -0.010417 0-0.015625-0.01608-1.0136-0.81-1.7772-1.7891-1.9609v-0.93164c-5.5e-5 -0.55226-0.44774-0.99994-1-1h-1.1992zm0 1h2.3867v1.791h0.66211c0.6205 0 1.1172 0.5038 1.127 1.1172v2.9102h-0.01172c0 0.086282-0.04779 0.20161-0.17383 0.32617l-0.52539 0.46289 1.7344 3.0059c0.35478-0.26046 0.68903-0.54535 0.97852-0.87891 0.86384-1.0094 1.5734-1.578 1.5742-3.9648 0.54379 0.00595 1.1915-1.507e-4 1.8047 0.00586 0 2.1656-0.90258 4.1856-2.3398 5.584-0.32882 0.32212-0.69869 0.60519-1.0859 0.86524l2.6934 4.668 0.11914 1.998-1.668-1.1016-2.748-4.7617c-0.93813 0.31972-2.0054 0.49609-2.9688 0.49609-1.2615 0-2.4557-0.2937-3.5059-0.83203l-2.9434 5.0977-1.668 1.1016 0.12109-1.998 5.3594-9.2832-0.52539-0.46484c-0.12606-0.12456-0.18353-0.23029-0.17383-0.32617h-0.00977v-2.9199c0-0.60384 0.50247-1.1074 1.1133-1.1074h0.67383v-1.7812zm1.1895 2.9844v0.013672c-0.6526 0-1.1895 0.53168-1.1895 1.1855 0 0.65381 0.53686 1.1855 1.1895 1.1855h0.0078c0.6526-0.00769 1.1895-0.53174 1.1895-1.1855 0-0.65387-0.53686-1.1778-1.1895-1.1855zm-0.89844 4.8301-1.3164 2.2832c0.76762 0.39196 1.6409 0.62695 2.5723 0.62695 0.64471 0 1.3828-0.11596 2.0488-0.3125l-1.498-2.5977-0.34766 0.30469c-0.14543 0.15336-0.34913 0.23047-0.55273 0.23047l-0.0098-0.0098v0.0098c-0.19391 0-0.39565-0.07711-0.55078-0.23047z" style="fill-opacity:.5;fill:currentColor"/>
	<path class="ColorScheme-Text" d="m10.443 3.0547v1.791h-0.67383c-0.61081 0-1.1133 0.50358-1.1133 1.1074v2.9199h0.00977c-0.0097 0.095881 0.047769 0.20161 0.17383 0.32617l0.52539 0.46484-5.3594 9.2832-0.12109 1.998 1.668-1.1016 2.9434-5.0977c1.0502 0.53833 2.2443 0.83203 3.5059 0.83203 0.96337 0 2.0306-0.17638 2.9688-0.49609l2.748 4.7617 1.668 1.1016-0.11914-1.998-2.6934-4.668c0.38724-0.26004 0.75712-0.54311 1.0859-0.86524 1.4373-1.3984 2.3398-3.4184 2.3398-5.584-0.61324-0.00601-1.2609 8.93e-5 -1.8047-0.00586-7.72e-4 2.3868-0.71038 2.9554-1.5742 3.9648-0.28948 0.33355-0.62374 0.61845-0.97852 0.87891l-1.7344-3.0059 0.52539-0.46289c0.12604-0.12456 0.17383-0.23989 0.17383-0.32617h0.01172v-2.9102c-0.0097-0.61338-0.50645-1.1172-1.127-1.1172h-0.66211v-1.791h-1.1992zm1.1895 2.9844 0.0078 0.013672c0.6526 0.00775 1.1895 0.53168 1.1895 1.1855 0 0.65381-0.53686 1.1779-1.1895 1.1855h-0.0078c-0.6526 0-1.1895-0.53174-1.1895-1.1855 0-0.65387 0.53686-1.1855 1.1895-1.1855zm-0.89844 4.8301 0.3457 0.30469c0.15513 0.15336 0.35688 0.23047 0.55078 0.23047v-0.0098l0.0098 0.0098c0.2036 0 0.4073-0.07711 0.55273-0.23047l0.34766-0.30469 1.498 2.5977c-0.66607 0.19654-1.4041 0.3125-2.0488 0.3125-0.93137 0-1.8046-0.235-2.5723-0.62695z" style="fill-opacity:.75;fill:currentColor"/>
</svg>
